public/Logo/Purple and White.svg

<svg xmlns="http://www.w3.org/2000/svg" fill="none" viewBox="0 0 718 178" xmlns:xlink="http://www.w3.org/1999/xlink"><g clip-path="url(#clip0_6_296)"><path fill="#92278f" d="M209.96 59.28v48.61a8 8 0 0 1-4.76 7.31v38.08c0 12.03-9.75 21.77-21.77 21.77h-25.48c-9.55 0-21.99-6.22-24.81-15.34l-11.92-38.59c-.89-2.85-4.87-2.98-5.94-.2l-14.87 38.47-.65 1.67-.18.45c-2.17 4.9-5.94 9.04-11.02 11.52-2.1 1.03-4.29 1.65-6.48 1.89-.03.02-.07.02-.11.02-.3.03-.61.05-.91.07-.8.06-1.61.06-2.42 0-.3-.02-.61-.04-.91-.07-.03 0-.07-.01-.11-.02-2.19-.24-4.38-.86-6.48-1.89-5.08-2.48-8.85-6.62-11.02-11.52l-.18-.45-.65-1.67L.31 6.8C-.78 3.96 1.16.95 4.1.94l8.53-.03c5.73-.02 11.44 1.1 16.63 3.53.38.17.77.36 1.16.56.45.22.88.46 1.31.69 7.24 4.02 12.83 10.47 16.16 18.05 9.69 22.05 19.39 44.11 29.08 66.16 1.11 2.5 4.66 2.5 5.76 0 9.69-22.05 19.39-44.11 29.08-66.16 3.33-7.58 8.92-14.03 16.16-18.05.43-.23.87-.47 1.31-.69.39-.2.78-.39 1.16-.56 5.19-2.43 14.9-3.55 20.63-3.53l8.53.03h23.83c12.02 0 21.77 9.75 21.77 21.77v32.58h.77c2.21 0 3.99 1.79 3.99 3.99"/><path fill="#fff" d="M378.23.8c5.2-.73 37.06-4.72 55.06 15.68 2.36 2.67 4.77 6.09 6.8 10.46l34.53 65.16c1.52 2.87 5.58 3 7.28.23l46.45-75.45c1.71-2.55 4.26-5.63 7.94-8.37 10.32-7.66 22-7 25.76-6.62l-71.24 108.39a18.4 18.4 0 0 0-3.03 10.21c.07 18.32.15 36.63.22 54.95-15.42 3.61-30.05.39-37.43-9.12-.16-.21-.32-.42-.48-.65-2.6-3.61-3.93-7.98-4.03-12.42l-.78-34.17c-.11-4.73-1.45-9.34-3.89-13.39zm151.69 175.81c-.05.1 0 .23.12.23 3.57.13 10.62-.12 18.14-4.04 10.88-5.67 15.41-15.19 16.68-18.16l41.84-85.62c3.35-6.85 13.1-6.87 16.48-.04l10.97 25.61c.89 2.08-.59 4.41-2.86 4.47l-11 .32c-4.65.14-8.93 2.57-11.42 6.49l-15.59 24.52c-.07.11.01.25.14.24l43.15-1.94c7.43-.33 14.28 4.02 17.14 10.89v.03c3.51 9.14 5.55 15.46 8.17 19.13 17.42 23.68 51.53 18.86 55.81 18.14.14-.02.17-.2.06-.28-8.31-5.94-10.86-12.74-16.99-24.92-4.85-9.64-12.32-24.25-20.62-43.41 0 0-30.74-66.07-49.45-103.84-2.82-5.69-10.9-5.79-13.87-.18-13.46 27.81-26.92 55.62-40.37 83.43-15.51 29.64-31.02 59.28-46.52 88.92zm-307.4 0c-.05.1 0 .23.12.23 3.57.13 10.62-.12 18.14-4.04 10.88-5.67 15.41-15.19 16.68-18.16 13.95-28.54 27.9-57.08 41.84-85.62 3.35-6.85 13.1-6.87 16.48-.04l10.97 25.61c.89 2.08-.59 4.41-2.86 4.47l-11 .32c-4.65.14-8.93 2.57-11.42 6.49l-15.59 24.52c-.07.11.01.25.14.24l43.15-1.94c7.43-.33 14.28 4.02 17.14 10.89v.03c3.51 9.14 5.55 15.46 8.17 19.13 17.42 23.68 51.53 18.86 55.81 18.14.14-.02.17-.2.06-.28-8.31-5.94-10.86-12.74-16.99-24.92-4.85-9.64-12.32-24.25-20.62-43.41 0 0-30.74-66.07-49.45-103.84-2.82-5.69-10.9-5.79-13.87-.18-13.46 27.81-26.92 55.62-40.37 83.43-15.51 29.64-31.02 59.28-46.52 88.92z"/><path fill="#4f1f60" d="M194.15 153.58c0 3.17-2.58 5.74-5.74 5.74-1.1 0-2 .9-2 2s.9 2 2 2c5.37 0 9.74-4.37 9.74-9.74v-37.7h-4zm4-131.57c0-5.37-4.37-9.74-9.74-9.74h-55.15c-1.1 0-2 .9-2 2s.9 2 2 2h55.15c3.17 0 5.74 2.58 5.74 5.74v33.28h4zM155.4 151.86h-2.56c-.55 0-1 .45-1 1s.45 1 1 1h2.56c.55 0 1-.45 1-1s-.45-1-1-1m12 0h-6c-.55 0-1 .45-1 1s.45 1 1 1h6c.55 0 1-.45 1-1s-.45-1-1-1m12 0h-6c-.55 0-1 .45-1 1s.45 1 1 1h6c.55 0 1-.45 1-1s-.45-1-1-1m7.9-6.98c-.55 0-1 .45-1 1v.14c0 1.72-.72 3.34-1.97 4.45-.41.37-.45 1-.08 1.41.2.22.47.34.75.34.24 0 .47-.08.66-.25 1.68-1.49 2.65-3.66 2.65-5.95v-.14c0-.55-.45-1-1-1z"/><path fill="#4f1f60" d="M148.41 22.73c0-.55-.45-1-1-1h-6c-.55 0-1 .45-1 1s.45 1 1 1h6c.55 0 1-.45 1-1m17 1h6c.55 0 1-.45 1-1s-.45-1-1-1h-6c-.55 0-1 .45-1 1s.45 1 1 1m20.89 5.85v2.3c0 .55.45 1 1 1s1-.45 1-1v-2.3c0-1.23-.28-2.53-.84-3.96a.995.995 0 0 0-1.3-.56c-.51.2-.77.78-.56 1.3.47 1.2.7 2.26.7 3.23zm-8.89-5.85h6c.55 0 1-.45 1-1s-.45-1-1-1h-6c-.55 0-1 .45-1 1s.45 1 1 1m-24 0h6c.55 0 1-.45 1-1s-.45-1-1-1h-6c-.55 0-1 .45-1 1s.45 1 1 1m33.89 109.15c-.55 0-1 .45-1 1v6c0 .55.45 1 1 1s1-.45 1-1v-6c0-.55-.45-1-1-1m0-96c-.55 0-1 .45-1 1v6c0 .55.45 1 1 1s1-.45 1-1v-6c0-.55-.45-1-1-1m1 13c0-.55-.45-1-1-1s-1 .45-1 1v5.41h2zm-1 71c-.55 0-1 .45-1 1v6c0 .55.45 1 1 1s1-.45 1-1v-6c0-.55-.45-1-1-1m0-4a1 1 0 0 0 1-.99h-2c0 .55.45.99 1 .99"/><path fill="#4f1f60" stroke="#4f1f60" stroke-linecap="round" stroke-linejoin="round" stroke-width=".75" d="M177.01 106.33c-12.09 0-21.93-9.31-21.93-20.75s9.84-20.75 21.93-20.75h25.01c1.1 0 2-.9 2-2s-.9-2-2-2h-25.01c-14.42 0-26.16 11.1-26.16 24.75s11.73 24.75 26.16 24.75h25.01c1.1 0 2-.9 2-2s-.9-2-2-2z"/><path fill="#4f1f60" stroke="#4f1f60" stroke-miterlimit="10" d="M178.2 93.42a6.81 6.81 0 1 0 0-13.62 6.81 6.81 0 0 0 0 13.62Z"/></g><defs><clipPath id="clip0_6_296"><path fill="#fff" d="M0 0h717.82v177.77H0z"/></clipPath></defs></svg>

<svg width="718" height="178" viewBox="0 0 718 178" fill="none" xmlns="http://www.w3.org/2000/svg">
<g clip-path="url(#clip0_6_296)">
<path d="M209.96 59.28V107.89C209.96 111.15 208 113.96 205.2 115.2V153.28C205.2 165.31 195.45 175.05 183.43 175.05H157.95C148.4 175.05 135.96 168.83 133.14 159.71L121.22 121.12C120.33 118.27 116.35 118.14 115.28 120.92L100.41 159.39L99.76 161.06C99.7 161.21 99.64 161.36 99.58 161.51C97.41 166.41 93.64 170.55 88.56 173.03C86.46 174.06 84.27 174.68 82.08 174.92C82.05 174.94 82.01 174.94 81.97 174.94C81.67 174.97 81.36 174.99 81.06 175.01C80.26 175.07 79.45 175.07 78.64 175.01C78.34 174.99 78.03 174.97 77.73 174.94C77.7 174.94 77.66 174.93 77.62 174.92C75.43 174.68 73.24 174.06 71.14 173.03C66.06 170.55 62.29 166.41 60.12 161.51C60.06 161.36 60 161.21 59.94 161.06L59.29 159.39L0.310045 6.8C-0.779955 3.96 1.16004 0.95 4.10004 0.94L12.63 0.91C18.36 0.89 24.07 2.01 29.26 4.44C29.64 4.61 30.03 4.8 30.42 5C30.87 5.22 31.3 5.46 31.73 5.69C38.97 9.71 44.56 16.16 47.89 23.74C57.58 45.79 67.28 67.85 76.97 89.9C78.08 92.4 81.63 92.4 82.73 89.9C92.42 67.85 102.12 45.79 111.81 23.74C115.14 16.16 120.73 9.71 127.97 5.69C128.4 5.46 128.84 5.22 129.28 5C129.67 4.8 130.06 4.61 130.44 4.44C135.63 2.01 145.34 0.89 151.07 0.91L159.6 0.94H183.43C195.45 0.94 205.2 10.69 205.2 22.71V55.29H205.97C208.18 55.29 209.96 57.08 209.96 59.28Z" fill="#92278F"/>
<path d="M378.23 0.799998C383.43 0.0699977 415.29 -3.92 433.29 16.48C435.65 19.15 438.06 22.57 440.09 26.94C451.6 48.66 463.11 70.38 474.62 92.1C476.14 94.97 480.2 95.1 481.9 92.33L528.35 16.88C530.06 14.33 532.61 11.25 536.29 8.51C546.61 0.849998 558.29 1.51 562.05 1.89L490.81 110.28C488.82 113.31 487.76 116.86 487.78 120.49C487.85 138.81 487.93 157.12 488 175.44C472.58 179.05 457.95 175.83 450.57 166.32C450.41 166.11 450.25 165.9 450.09 165.67C447.49 162.06 446.16 157.69 446.06 153.25L445.28 119.08C445.17 114.35 443.83 109.74 441.39 105.69L378.23 0.799998Z" fill="white"/>
<path d="M529.92 176.61C529.87 176.71 529.92 176.84 530.04 176.84C533.61 176.97 540.66 176.72 548.18 172.8C559.06 167.13 563.59 157.61 564.86 154.64L606.7 69.02C610.05 62.17 619.8 62.15 623.18 68.98L634.15 94.59C635.04 96.67 633.56 99 631.29 99.06L620.29 99.38C615.64 99.52 611.36 101.95 608.87 105.87L593.28 130.39C593.21 130.5 593.29 130.64 593.42 130.63L636.57 128.69C644 128.36 650.85 132.71 653.71 139.58C653.71 139.58 653.71 139.6 653.71 139.61C657.22 148.75 659.26 155.07 661.88 158.74C679.3 182.42 713.41 177.6 717.69 176.88C717.83 176.86 717.86 176.68 717.75 176.6C709.44 170.66 706.89 163.86 700.76 151.68C695.91 142.04 688.44 127.43 680.14 108.27C680.14 108.27 649.4 42.2 630.69 4.43C627.87 -1.26 619.79 -1.36 616.82 4.25C603.36 32.06 589.9 59.87 576.45 87.68C560.94 117.32 545.43 146.96 529.93 176.6L529.92 176.61Z" fill="white"/>
<path d="M222.52 176.61C222.47 176.71 222.52 176.84 222.64 176.84C226.21 176.97 233.26 176.72 240.78 172.8C251.66 167.13 256.19 157.61 257.46 154.64C271.41 126.1 285.36 97.56 299.3 69.02C302.65 62.17 312.4 62.15 315.78 68.98L326.75 94.59C327.64 96.67 326.16 99 323.89 99.06L312.89 99.38C308.24 99.52 303.96 101.95 301.47 105.87L285.88 130.39C285.81 130.5 285.89 130.64 286.02 130.63L329.17 128.69C336.6 128.36 343.45 132.71 346.31 139.58C346.31 139.58 346.31 139.6 346.31 139.61C349.82 148.75 351.86 155.07 354.48 158.74C371.9 182.42 406.01 177.6 410.29 176.88C410.43 176.86 410.46 176.68 410.35 176.6C402.04 170.66 399.49 163.86 393.36 151.68C388.51 142.04 381.04 127.43 372.74 108.27C372.74 108.27 342 42.2 323.29 4.43C320.47 -1.26 312.39 -1.36 309.42 4.25C295.96 32.06 282.5 59.87 269.05 87.68C253.54 117.32 238.03 146.96 222.53 176.6L222.52 176.61Z" fill="white"/>
<path d="M194.15 153.58C194.15 156.75 191.57 159.32 188.41 159.32C187.31 159.32 186.41 160.22 186.41 161.32C186.41 162.42 187.31 163.32 188.41 163.32C193.78 163.32 198.15 158.95 198.15 153.58V115.88H194.15V153.58Z" fill="#4F1F60"/>
<path d="M198.15 22.01C198.15 16.64 193.78 12.27 188.41 12.27H133.26C132.16 12.27 131.26 13.17 131.26 14.27C131.26 15.37 132.16 16.27 133.26 16.27H188.41C191.58 16.27 194.15 18.85 194.15 22.01V55.29H198.15V22.01Z" fill="#4F1F60"/>
<path d="M155.4 151.86H152.84C152.29 151.86 151.84 152.31 151.84 152.86C151.84 153.41 152.29 153.86 152.84 153.86H155.4C155.95 153.86 156.4 153.41 156.4 152.86C156.4 152.31 155.95 151.86 155.4 151.86Z" fill="#4F1F60"/>
<path d="M167.4 151.86H161.4C160.85 151.86 160.4 152.31 160.4 152.86C160.4 153.41 160.85 153.86 161.4 153.86H167.4C167.95 153.86 168.4 153.41 168.4 152.86C168.4 152.31 167.95 151.86 167.4 151.86Z" fill="#4F1F60"/>
<path d="M179.4 151.86H173.4C172.85 151.86 172.4 152.31 172.4 152.86C172.4 153.41 172.85 153.86 173.4 153.86H179.4C179.95 153.86 180.4 153.41 180.4 152.86C180.4 152.31 179.95 151.86 179.4 151.86Z" fill="#4F1F60"/>
<path d="M187.3 144.88C186.75 144.88 186.3 145.33 186.3 145.88V146.02C186.3 147.74 185.58 149.36 184.33 150.47C183.92 150.84 183.88 151.47 184.25 151.88C184.45 152.1 184.72 152.22 185 152.22C185.24 152.22 185.47 152.14 185.66 151.97C187.34 150.48 188.31 148.31 188.31 146.02V145.88C188.31 145.33 187.86 144.88 187.31 144.88H187.3Z" fill="#4F1F60"/>
<path d="M148.41 22.73C148.41 22.18 147.96 21.73 147.41 21.73H141.41C140.86 21.73 140.41 22.18 140.41 22.73C140.41 23.28 140.86 23.73 141.41 23.73H147.41C147.96 23.73 148.41 23.28 148.41 22.73Z" fill="#4F1F60"/>
<path d="M165.41 23.73H171.41C171.96 23.73 172.41 23.28 172.41 22.73C172.41 22.18 171.96 21.73 171.41 21.73H165.41C164.86 21.73 164.41 22.18 164.41 22.73C164.41 23.28 164.86 23.73 165.41 23.73Z" fill="#4F1F60"/>
<path d="M186.3 29.58V31.88C186.3 32.43 186.75 32.88 187.3 32.88C187.85 32.88 188.3 32.43 188.3 31.88V29.58C188.3 28.35 188.02 27.05 187.46 25.62C187.26 25.11 186.68 24.85 186.16 25.06C185.65 25.26 185.39 25.84 185.6 26.36C186.07 27.56 186.3 28.62 186.3 29.59V29.58Z" fill="#4F1F60"/>
<path d="M177.41 23.73H183.41C183.96 23.73 184.41 23.28 184.41 22.73C184.41 22.18 183.96 21.73 183.41 21.73H177.41C176.86 21.73 176.41 22.18 176.41 22.73C176.41 23.28 176.86 23.73 177.41 23.73Z" fill="#4F1F60"/>
<path d="M153.41 23.73H159.41C159.96 23.73 160.41 23.28 160.41 22.73C160.41 22.18 159.96 21.73 159.41 21.73H153.41C152.86 21.73 152.41 22.18 152.41 22.73C152.41 23.28 152.86 23.73 153.41 23.73Z" fill="#4F1F60"/>
<path d="M187.3 132.88C186.75 132.88 186.3 133.33 186.3 133.88V139.88C186.3 140.43 186.75 140.88 187.3 140.88C187.85 140.88 188.3 140.43 188.3 139.88V133.88C188.3 133.33 187.85 132.88 187.3 132.88Z" fill="#4F1F60"/>
<path d="M187.3 36.88C186.75 36.88 186.3 37.33 186.3 37.88V43.88C186.3 44.43 186.75 44.88 187.3 44.88C187.85 44.88 188.3 44.43 188.3 43.88V37.88C188.3 37.33 187.85 36.88 187.3 36.88Z" fill="#4F1F60"/>
<path d="M188.3 49.88C188.3 49.33 187.85 48.88 187.3 48.88C186.75 48.88 186.3 49.33 186.3 49.88V55.29H188.3V49.88Z" fill="#4F1F60"/>
<path d="M187.3 120.88C186.75 120.88 186.3 121.33 186.3 121.88V127.88C186.3 128.43 186.75 128.88 187.3 128.88C187.85 128.88 188.3 128.43 188.3 127.88V121.88C188.3 121.33 187.85 120.88 187.3 120.88Z" fill="#4F1F60"/>
<path d="M187.3 116.88C187.85 116.88 188.29 116.44 188.3 115.89H186.3C186.3 116.44 186.75 116.88 187.3 116.88Z" fill="#4F1F60"/>
<path d="M177.01 106.33C164.92 106.33 155.08 97.02 155.08 85.58C155.08 74.14 164.92 64.83 177.01 64.83H202.02C203.12 64.83 204.02 63.93 204.02 62.83C204.02 61.73 203.12 60.83 202.02 60.83H177.01C162.59 60.83 150.85 71.93 150.85 85.58C150.85 99.23 162.58 110.33 177.01 110.33H202.02C203.12 110.33 204.02 109.43 204.02 108.33C204.02 107.23 203.12 106.33 202.02 106.33H177.01Z" fill="#4F1F60" stroke="#4F1F60" stroke-width="0.75" stroke-linecap="round" stroke-linejoin="round"/>
<path d="M178.2 93.42C181.961 93.42 185.01 90.371 185.01 86.61C185.01 82.8489 181.961 79.8 178.2 79.8C174.439 79.8 171.39 82.8489 171.39 86.61C171.39 90.371 174.439 93.42 178.2 93.42Z" fill="#4F1F60" stroke="#4F1F60" stroke-miterlimit="10"/>
</g>
<defs>
<clipPath id="clip0_6_296">
<rect width="717.82" height="177.77" fill="white"/>
</clipPath>
</defs>
</svg>
